public/avatar/item1/64.svg

<svg xmlns:xlink="http://www.w3.org/1999/xlink" height="65.4" width="80.15" xmlns="http://www.w3.org/2000/svg"><use height="31.45" transform="translate(7.8 32.75)" width="40.9" xlink:href="#a"/><defs><g id="a" fill-rule="evenodd"><path d="M16.9 22.75q-7.45 6.1-13.7 8.85-7.85 2.7-13.25 5.1-5.35 12.65-5.55 12.75l-.95.15q-.15.6-.45.7-2.3.35-2.5-.45l-.1-.85-1-.65-.5.45-1.1-.7q-.9-.65-.9-1l.35-1.15q-1.25-.65-1-3.1l.7-8.3q0-.4 1.15-1.95l1.95-2.35 1.6-1.4.6.6q.4.6.4 1.05-.1 1.45.5 1.55.95 1.55 1.35 1.4l14.4-4.85q7.45-2.75 15.85-9.65l1.1.35q.35 1.6 1.05 2.15l.2.65-.2.65" fill="#000202" transform="translate(23.8 -18.95)"/><path d="m-22 45.7 1.35 1.85q-.1.75-.35.8-.5.1-1.5-1-.55-.55.5-1.65m2.9 2.7 2.5.45q-.4 1.1-.75 1.2-1.2.2-1.85-.45l.1-1.2" fill="#7f2900" transform="translate(23.8 -18.95)"/><path d="m-22.25 47.5.8-.45.8.8q-.1.65-.55.45l-1.05-.8m5.55 1.7q-.3.75-.65.85l-1.25-.2q1.1-.45.6-.75l1.3.1" fill="#631300" transform="translate(23.8 -18.95)"/><path d="m-22.05 46.15.45.6-.3.3q-.3.3-.55-.2-.1-.45.4-.7m3 2.55.65.3-.25.4q-.35 0-.5-.2l.1-.5" fill="#aa4600" transform="translate(23.8 -18.95)"/><path d="M16.55 21.9q-.7 1.45-3.3 2.25l-2.25 2Q8.5 28.4 4.1 30.3q-7.3 3.25-15.15 5.75-.5.4-5.3-1.15l1.15-.95Q-4.8 31 .15 28.8q4.95-2.25 14.75-9.15.55-.55.95.4l.7 1.85" fill="#ff8900" transform="translate(23.8 -18.95)"/><path d="m15.3 20.3.25.85Q5.15 28 2.25 29.3-.7 30.65-13.2 34.8l-1.65-.25q13-4.5 16.55-6.1 3.55-1.65 13.6-8.15" fill="#f26500" transform="translate(23.8 -18.95)"/><path d="M16.3 22.1q-6.5 6-12.1 8.55-5.65 2.6-14.8 5-.35.2-1.55-.55 10.45-2.75 15.8-5.15 5.4-2.45 12.3-8.3l.35.45" fill="#f26500" transform="translate(23.8 -18.95)"/><path d="M-22.25 45.95q-.3-.5.3-2.15l4.1-8.95q.4-.85 1.35-.65l2.8.4q2.5.35 2.8.8.5.7.4 1-5.25 12.7-5.6 12.75-3.85.8-6.15-3.2" fill="#ff4d00" transform="translate(23.8 -18.95)"/><path d="m-23.1 41.7.4-5.2q.15-2.3.6-2.85l1.85-2.55q1.4-1.85 2.15-1.5.7.3.55.55l.55 2q.45.05 1.5 1.8.35-.1-6.65 11.45-1.45.45-.95-3.7m11.5-6.35q.65.1.8 1-5 12.55-5.4 12.55-5 .25-5.5-3.6l4.75.8q.35.05 5.35-10.75" fill="#c93d00" transform="translate(23.8 -18.95)"/><path d="M-21.9 44.8q-.55-11.65 1.65-12.9 2.15-1.25 4 3.45l-1.85 2.95-.65-2.55q-.7-2.5-1-2.3l-.75 8.75-1.4 2.6" fill="#cf7f06" transform="translate(23.8 -18.95)"/><path d="m-21.8 45.05 6.3-10.6 2.85.45-2.6.2q-4.65 10.4-6.55 9.95" fill="#ff7b42" transform="translate(23.8 -18.95)"/><path d="M-21.65 35.85q.3-3.8 1.75-4.15 1.45-.35 3 2.35l-1.8 1.65-1.05-2.25-.45 2.5-1.45-.1" fill="#efc129" transform="translate(23.8 -18.95)"/><path d="M-21.55 34.8q.5-2.6 1.65-3.1.95-.4 2.05 1l-1.45 1.5-.45-.75-.25.9-1.55.45" fill="#efe2b6" transform="translate(23.8 -18.95)"/><path d="M-20 31.25q-.35.15 1.65-1.4.25.1.65 1.8l-.7-.35-1.6-.05" fill="#ff4d00" transform="translate(23.8 -18.95)"/><path d="m-19.2 30.6.5-.4h.35q.15.1.15.35l-.65.3q-.5.2-.4-.3l.05.05" fill="#ff7b42" transform="translate(23.8 -18.95)"/><path d="M-14.9 35.2q.55-.45 1.25 0l-4.1 5.5 2.85-5.5" fill="#ffa882" transform="translate(23.8 -18.95)"/><path d="m-14.25 34.35-.55-.1-.25-.25L-.8 29.5l-13.45 4.85M12.55 21l2.8-1.3q.5.5-2.8 1.3m.65 2.2q2.95-1.7 3.05-1.55.2.45-3.05 1.55m-25.95 11.5 10.85-3.25-9.45 3.65-1.4-.4m1.95.85 5.95-2.1-5.5 2.7-.45-.6" fill="#ffb27a" transform="translate(23.8 -18.95)"/></g></defs></svg>

<?xml version="1.0" encoding="UTF-8" standalone="no"?>
<svg xmlns:xlink="http://www.w3.org/1999/xlink" height="65.4px" width="80.15px" xmlns="http://www.w3.org/2000/svg">
  <g transform="matrix(1.0, 0.0, 0.0, 1.0, 31.6, 13.8)">
    <use height="31.45" transform="matrix(1.0, 0.0, 0.0, 1.0, -23.8, 18.95)" width="40.9" xlink:href="#shape0"/>
  </g>
  <defs>
    <g id="shape0" transform="matrix(1.0, 0.0, 0.0, 1.0, 23.8, -18.95)">
      <path d="M16.9 22.75 Q9.45 28.85 3.2 31.6 -4.65 34.3 -10.05 36.7 -15.4 49.35 -15.6 49.45 L-16.55 49.6 Q-16.7 50.2 -17.0 50.3 -19.3 50.65 -19.5 49.85 L-19.6 49.0 -20.6 48.35 -21.1 48.8 -22.2 48.1 Q-23.1 47.45 -23.1 47.1 L-22.75 45.95 Q-24.0 45.3 -23.75 42.85 L-23.05 34.55 Q-23.05 34.15 -21.9 32.6 L-19.95 30.25 -18.35 28.85 -17.75 29.45 Q-17.35 30.05 -17.35 30.5 -17.45 31.95 -16.85 32.05 -15.9 33.6 -15.5 33.45 L-1.1 28.6 Q6.35 25.85 14.75 18.95 L15.85 19.3 Q16.2 20.9 16.9 21.45 L17.1 22.1 16.9 22.75" fill="#000202" fill-rule="evenodd" stroke="none"/>
      <path d="M-22.0 45.7 L-20.65 47.55 Q-20.75 48.3 -21.0 48.35 -21.5 48.45 -22.5 47.35 -23.05 46.8 -22.0 45.7" fill="#7f2900" fill-rule="evenodd" stroke="none"/>
      <path d="M-19.1 48.4 L-16.6 48.85 Q-17.0 49.95 -17.35 50.05 -18.55 50.25 -19.2 49.6 L-19.1 48.4" fill="#7f2900" fill-rule="evenodd" stroke="none"/>
      <path d="M-22.25 47.5 L-21.45 47.05 -20.65 47.85 Q-20.75 48.5 -21.2 48.3 L-22.25 47.5" fill="#631300" fill-rule="evenodd" stroke="none"/>
      <path d="M-16.7 49.2 Q-17.0 49.95 -17.35 50.05 L-18.6 49.85 Q-17.5 49.4 -18.0 49.1 L-16.7 49.2" fill="#631300" fill-rule="evenodd" stroke="none"/>
      <path d="M-22.05 46.15 L-21.6 46.75 -21.9 47.05 Q-22.2 47.35 -22.45 46.85 -22.55 46.4 -22.05 46.15" fill="#aa4600" fill-rule="evenodd" stroke="none"/>
      <path d="M-19.05 48.7 L-18.4 49.0 -18.65 49.4 Q-19.0 49.4 -19.15 49.2 L-19.05 48.7" fill="#aa4600" fill-rule="evenodd" stroke="none"/>
      <path d="M16.55 21.9 Q15.85 23.35 13.25 24.15 L11.0 26.15 Q8.5 28.4 4.1 30.3 -3.2 33.55 -11.05 36.05 -11.55 36.45 -16.35 34.9 L-15.2 33.95 Q-4.8 31.0 0.15 28.8 5.1 26.55 14.9 19.65 15.45 19.1 15.85 20.05 L16.55 21.9" fill="#ff8900" fill-rule="evenodd" stroke="none"/>
      <path d="M15.3 20.3 L15.55 21.15 Q5.15 28.0 2.25 29.3 -0.7 30.65 -13.2 34.8 L-14.85 34.55 Q-1.85 30.05 1.7 28.45 5.25 26.8 15.3 20.3" fill="#f26500" fill-rule="evenodd" stroke="none"/>
      <path d="M16.3 22.1 Q9.8 28.1 4.2 30.65 -1.45 33.25 -10.6 35.65 -10.95 35.85 -12.15 35.1 -1.7 32.35 3.65 29.95 9.05 27.5 15.95 21.65 L16.3 22.1" fill="#f26500" fill-rule="evenodd" stroke="none"/>
      <path d="M-22.25 45.95 Q-22.55 45.45 -21.95 43.8 L-17.85 34.85 Q-17.45 34.0 -16.5 34.2 L-13.7 34.6 Q-11.2 34.95 -10.9 35.4 -10.4 36.1 -10.5 36.4 -15.75 49.1 -16.1 49.15 -19.95 49.95 -22.25 45.95" fill="#ff4d00" fill-rule="evenodd" stroke="none"/>
      <path d="M-23.1 41.7 L-22.7 36.5 Q-22.55 34.2 -22.1 33.65 L-20.25 31.1 Q-18.85 29.25 -18.1 29.6 -17.4 29.9 -17.55 30.15 L-17.0 32.15 Q-16.55 32.2 -15.5 33.95 -15.15 33.85 -22.15 45.4 -23.6 45.85 -23.1 41.7" fill="#c93d00" fill-rule="evenodd" stroke="none"/>
      <path d="M-11.6 35.35 Q-10.95 35.45 -10.8 36.35 -15.8 48.9 -16.2 48.9 -21.2 49.15 -21.7 45.3 L-16.95 46.1 Q-16.6 46.15 -11.6 35.35" fill="#c93d00" fill-rule="evenodd" stroke="none"/>
      <path d="M-21.9 44.8 Q-22.45 33.15 -20.25 31.9 -18.1 30.65 -16.25 35.35 L-18.1 38.3 -18.75 35.75 Q-19.45 33.25 -19.75 33.45 L-20.5 42.2 -21.9 44.8" fill="#cf7f06" fill-rule="evenodd" stroke="none"/>
      <path d="M-21.8 45.05 L-15.5 34.45 -12.65 34.9 -15.25 35.1 Q-19.9 45.5 -21.8 45.05" fill="#ff7b42" fill-rule="evenodd" stroke="none"/>
      <path d="M-21.65 35.85 Q-21.35 32.05 -19.9 31.7 -18.45 31.35 -16.9 34.05 L-18.7 35.7 -19.75 33.45 -20.2 35.95 -21.65 35.85" fill="#efc129" fill-rule="evenodd" stroke="none"/>
      <path d="M-21.55 34.8 Q-21.05 32.2 -19.9 31.7 -18.95 31.3 -17.85 32.7 L-19.3 34.2 -19.75 33.45 -20.0 34.35 -21.55 34.8" fill="#efe2b6" fill-rule="evenodd" stroke="none"/>
      <path d="M-20.0 31.25 Q-20.35 31.4 -18.35 29.85 -18.1 29.95 -17.7 31.65 L-18.4 31.3 -20.0 31.25" fill="#ff4d00" fill-rule="evenodd" stroke="none"/>
      <path d="M-19.2 30.6 L-18.7 30.2 -18.35 30.2 Q-18.2 30.3 -18.2 30.55 L-18.85 30.85 Q-19.35 31.05 -19.25 30.55 L-19.2 30.6" fill="#ff7b42" fill-rule="evenodd" stroke="none"/>
      <path d="M-14.9 35.2 Q-14.35 34.75 -13.65 35.2 L-17.75 40.7 -14.9 35.2" fill="#ffa882" fill-rule="evenodd" stroke="none"/>
      <path d="M-14.25 34.35 L-14.8 34.25 -15.05 34.0 -0.8 29.5 -14.25 34.35" fill="#ffb27a" fill-rule="evenodd" stroke="none"/>
      <path d="M12.55 21.0 L15.35 19.7 Q15.85 20.2 12.55 21.0" fill="#ffb27a" fill-rule="evenodd" stroke="none"/>
      <path d="M13.2 23.2 Q16.15 21.5 16.25 21.65 16.45 22.1 13.2 23.2" fill="#ffb27a" fill-rule="evenodd" stroke="none"/>
      <path d="M-12.75 34.7 L-1.9 31.45 -11.35 35.1 -12.75 34.7" fill="#ffb27a" fill-rule="evenodd" stroke="none"/>
      <path d="M-10.8 35.55 L-4.85 33.45 -10.35 36.15 -10.8 35.55" fill="#ffb27a" fill-rule="evenodd" stroke="none"/>
    </g>
  </defs>
</svg>
